dist/svgs/news-full.svg

<!-- Generated by IcoMoon.io -->
<svg version="1.1" xmlns="http://www.w3.org/2000/svg" width="24" height="24" viewBox="0 0 24 24">
<title>news-full</title>
<path d="M4 1v11h-3c-0.552 0-1 0.448-1 1v8c0 1.657 1.343 3 3 3h18c1.657 0 3-1.343 3-3v-20c0-0.552-0.448-1-1-1h-18c-0.552 0-1 0.448-1 1zM8 5h6v6h-6v-6zM3 22c-0.552 0-1-0.449-1-1v-7h2v7c0 0.551-0.448 1-1 1zM20 19h-12v-2h12v2zM20 15h-12v-2h12v2zM20 11h-4v-2h4v2zM20 7h-4v-2h4v2z"></path>
</svg>

<svg xmlns="http://www.w3.org/2000/svg" width="24" height="24"><path d="M4 1v11H1a1 1 0 0 0-1 1v8a3 3 0 0 0 3 3h18a3 3 0 0 0 3-3V1a1 1 0 0 0-1-1H5a1 1 0 0 0-1 1zm4 4h6v6H8V5zM3 22c-.552 0-1-.449-1-1v-7h2v7c0 .551-.448 1-1 1zm17-3H8v-2h12v2zm0-4H8v-2h12v2zm0-4h-4V9h4v2zm0-4h-4V5h4v2z"/></svg>
